Papirus-Adapta/16x16/panel/gpm-monitor.svg

<svg xmlns="http://www.w3.org/2000/svg" width="16" height="16" version="1.1">
 <defs>
  <style id="current-color-scheme" type="text/css">
   .ColorScheme-Text { color:#cfd8dc; } .ColorScheme-Highlight { color:#00b4cb; }
  </style>
 </defs>
 <path style="fill:currentColor" class="ColorScheme-Text" d="m 8.7793062,2.0015312 c -0.05156,-0.00555 -0.102813,0.00986 -0.142578,0.044922 -0.03976,0.03509 -0.06339,0.085636 -0.06836,0.140625 l -0.226562,2.4863281 c -0.01035,0.1144062 0.06903,0.2174449 0.175781,0.2285156 0.618358,0.06421 1.21365,0.2429922 1.7714838,0.5312502 0.02654,0.01373 0.057,0.01953 0.08594,0.01953 0.02159,0 0.04169,-0.004 0.0625,-0.01172 0.0486,-0.01819 0.08897,-0.05575 0.111328,-0.105469 l 1.011719,-2.25 c 0.04662,-0.1035318 0.0068,-0.2274557 -0.08984,-0.2773438 C 10.623385,2.3703901 9.7173532,2.0990091 8.7793062,2.0015312 Z m -1.863281,0.037109 C 5.982475,2.174375 5.087797,2.4835413 4.255869,2.956609 4.161149,3.010477 4.125594,3.1362612 4.175789,3.2378591 l 1.091797,2.207031 c 0.03488,0.07049 0.102305,0.109375 0.171875,0.109375 0.03069,0 0.06088,-0.007 0.08984,-0.02344 0.5480302,-0.311576 1.1372282,-0.51411 1.7519522,-0.6035159 0.106248,-0.015443 0.180421,-0.1204452 0.166016,-0.234375 l -0.3125,-2.4765626 C 7.1203592,2.1024729 7.0220072,2.0233095 6.9160192,2.0386402 Z m 5.9863278,1.7968751 c -0.05122,0.00569 -0.09839,0.033347 -0.13086,0.076172 L 11.30079,5.8491871 c -0.03247,0.04285 -0.04632,0.09744 -0.04101,0.1523439 0.0053,0.0549 0.03034,0.105759 0.07031,0.140625 0.48288,0.420938 0.888336,0.922558 1.207031,1.494141 0.03639,0.06519 0.101877,0.101562 0.167969,0.101562 0.03391,0 0.06842,-0.0093 0.09961,-0.0293 l 2,-1.28125 c 0.04416,-0.02834 0.07529,-0.07339 0.08789,-0.126953 0.01255,-0.05356 0.005,-0.110781 -0.02148,-0.158203 -0.481887,-0.8642129 -1.096363,-1.6254218 -1.826172,-2.2617188 -0.03997,-0.03481 -0.09115,-0.050443 -0.142578,-0.044922 z M 2.861337,4.0425466 c -0.05163,-0.00353 -0.101958,0.014346 -0.140625,0.050781 -0.706855,0.6660896 -1.293758,1.4508255 -1.74414,2.3339844 -0.02468,0.04846 -0.03011,0.107213 -0.01563,0.160156 0.01448,0.05297 0.04659,0.09659 0.0918,0.123047 l 2.044921,1.199219 c 0.02957,0.01735 0.06225,0.02539 0.09375,0.02539 0.06868,0 0.134654,-0.0402 0.169922,-0.109375 C 3.659011,7.242002 4.048047,6.723392 4.515632,6.28278 4.554382,6.2464 4.576812,6.19533 4.580082,6.140202 4.583382,6.085132 4.567192,6.02931 4.533212,5.9878581 l -1.5390621,-1.875 C 2.9601599,4.0714071 2.9127599,4.0461061 2.861337,4.0425466 Z M 15.392586,7.833562 13.167977,8.579656 c -0.102354,0.03436 -0.159006,0.152049 -0.126953,0.261719 0.159583,0.546134 0.240234,1.116414 0.240234,1.695312 0,0.08523 -0.0018,0.172015 -0.0059,0.265625 -0.0024,0.05513 0.01606,0.109611 0.05078,0.150391 0.03469,0.04081 0.08334,0.06584 0.134766,0.06836 l 2.328124,0.115234 c 0.0031,1.41e-4 0.0048,0 0.0078,0 0.103112,0 0.188497,-0.08767 0.193359,-0.199218 0.006,-0.138875 0.0098,-0.26987 0.0098,-0.400392 C 15.999935,9.661852 15.876898,8.798619 15.634753,7.970281 15.602653,7.860555 15.494814,7.799117 15.392565,7.833562 Z M 4.61329,8.073796 c -0.04224,0.0053 -0.08289,0.02534 -0.115234,0.05859 -0.06473,0.06645 -0.07931,0.171162 -0.03711,0.25586 l 1.7207032,3.457031 c -0.0063,0.06659 -0.0098,0.1353 -0.0098,0.203125 0,0.521526 0.189227,1.010155 0.533203,1.378906 0.344003,0.368779 0.800622,0.572266 1.28711,0.572266 0.486487,0 0.945086,-0.203543 1.289062,-0.572266 0.344003,-0.368751 0.533203,-0.85738 0.533203,-1.378906 0,-0.521527 -0.189226,-1.012108 -0.533203,-1.38086 -0.343514,-0.368255 -0.80138,-0.57172 -1.287109,-0.572265 h -0.002 c -0.03284,4.4e-5 -0.06707,8.4e-5 -0.09961,0.002 L 4.738208,8.103093 c -0.0386,-0.02445 -0.08276,-0.03456 -0.125,-0.0293 z m -4.095703,0.06641 c -0.0497,-0.01441 -0.103757,-0.0079 -0.1484371,0.01953 -0.04468,0.02747 -0.07633,0.07367 -0.08984,0.126954 -0.184812,0.730664 -0.2792971,1.487385 -0.2792971,2.25 0,0.130522 0.0037,0.261517 0.0098,0.40039 0.0048,0.111575 0.0902,0.199219 0.193359,0.199218 0.003,0 0.0067,1.69e-4 0.0098,0 l 2.326172,-0.115234 c 0.05143,-0.0025 0.100125,-0.02758 0.134765,-0.06836 0.03469,-0.04078 0.05319,-0.09526 0.05078,-0.15039 -0.004,-0.09364 -0.0059,-0.180423 -0.0059,-0.265625 0,-0.505046 0.06166,-1.00446 0.183594,-1.486328 0.028,-0.11093 -0.03324,-0.22573 -0.136718,-0.255859 z"/>
</svg>

<svg xmlns="http://www.w3.org/2000/svg" width="16" height="16" version="1.1">
 <defs>
  <style id="current-color-scheme" type="text/css">
   .ColorScheme-Text { color:#dfdfdf; } .ColorScheme-Highlight { color:#4285f4; } .ColorScheme-NeutralText { color:#ff9800; } .ColorScheme-PositiveText { color:#4caf50; } .ColorScheme-NegativeText { color:#f44336; }
  </style>
 </defs>
 <path style="fill:currentColor" class="ColorScheme-Text" d="M 8.779,2.0011 C 8.728,1.9956 8.676,2.011 8.637,2.0461 8.597,2.0811 8.573,2.1317 8.568,2.1867 L 8.342,4.673 C 8.331,4.7874 8.411,4.8905 8.518,4.9015 9.136,4.9657 9.731,5.1445 10.289,5.4328 10.38,5.4853 10.488,5.4406 10.549,5.3351 L 11.561,3.0851 C 11.607,2.9816 11.567,2.8577 11.471,2.8078 10.623,2.37 9.717,2.0986 8.779,2.0011 Z M 6.916,2.0382 C 5.9825,2.174 5.0878,2.4831 4.2559,2.9562 4.1611,3.0101 4.1256,3.1359 4.1758,3.2375 L 5.2676,5.4445 C 5.3025,5.515 5.3699,5.5539 5.4395,5.5539 5.4702,5.5539 5.5003,5.5469 5.5293,5.5304 6.077,5.2188 6.667,5.0163 7.281,4.9269 7.388,4.9115 7.462,4.8065 7.447,4.6925 L 7.135,2.216 C 7.12,2.1021 7.022,2.0229 6.916,2.0382 Z M 12.902,3.8351 C 12.851,3.8408 12.804,3.8685 12.771,3.9113 L 11.301,5.8488 C 11.268,5.8916 11.254,5.9462 11.26,6.002 11.265,6.056 11.29,6.107 11.33,6.142 11.813,6.563 12.218,7.065 12.537,7.636 12.574,7.701 12.639,7.738 12.705,7.738 12.739,7.738 12.774,7.729 12.805,7.709 L 14.805,6.427 C 14.898,6.368 14.922,6.23 14.871,6.142 14.389,5.2775 13.775,4.5163 13.045,3.88 13.005,3.8452 12.954,3.8296 12.902,3.8351 Z M 2.8613,4.0421 C 2.8097,4.0386 2.7594,4.0565 2.7207,4.0929 2.0139,4.759 1.427,5.5438 0.9766,6.427 0.9519,6.476 0.9465,6.535 0.9609,6.587 0.9754,6.64 1.0075,6.684 1.0527,6.711 L 3.0977,7.91 C 3.1893,7.963 3.3022,7.928 3.3613,7.826 3.659,7.242 4.048,6.723 4.5156,6.283 4.5544,6.246 4.5768,6.195 4.5801,6.14 4.5834,6.085 4.5672,6.029 4.5332,5.9875 L 2.9941,4.1125 C 2.9602,4.071 2.9128,4.0457 2.8613,4.0421 Z M 15.393,7.834 13.168,8.58 C 13.066,8.614 13.009,8.732 13.041,8.841 13.201,9.388 13.294,9.958 13.281,10.537 L 13.275,10.802 C 13.272,10.888 13.346,11.021 13.461,11.021 L 15.797,11.136 C 15.9,11.136 15.985,11.049 15.99,10.937 15.996,10.798 16,10.537 16,10.537 16,9.662 15.877,8.799 15.635,7.97 15.603,7.861 15.495,7.799 15.393,7.834 Z M 7.893,10.097 4.7382,8.103 C 4.7382,8.103 4.6554,8.069 4.6132,8.074 4.6132,8.074 4.5304,8.099 4.4981,8.132 4.4333,8.199 4.4187,8.304 4.4609,8.388 L 6.182,11.845 C 6.182,11.845 6.172,11.981 6.172,12.048 6.172,12.57 6.361,13.059 6.705,13.427 7.049,13.796 7.506,14 7.992,14 8.479,14 8.937,13.796 9.281,13.427 9.625,13.059 9.814,12.57 9.814,12.048 9.814,11.527 9.625,11.036 9.281,10.668 8.938,10.299 8.48,10.096 7.994,10.095 Z M 0.5176,8.14 C 0.4679,8.126 0.4138,8.132 0.3691,8.16 0.3245,8.187 0.2928,8.233 0.2793,8.287 0.0945,9.017 0,9.774 0,10.537 0,10.667 0.0098,10.937 0.0098,10.937 0.0146,11.049 0.1,11.136 0.2032,11.136 L 2.5391,11.021 C 2.6374,11.017 2.7247,10.927 2.7247,10.802 2.7207,10.709 2.7188,10.537 2.7188,10.537 2.7188,10.032 2.7804,9.532 2.9024,9.05 2.9304,8.939 2.8691,8.825 2.7657,8.795 Z"/>
</svg>
